X: 7
T: Matt Peoples'
R: reel
M: 4/4
L: 1/8
K: Bmin
^A|:B2 fB dBfB|c2 ac cBAc|B2 fB dBfB|cBAc B3^A|
B2 fB dBfB|c2 ac cBAc|B2 fB dBfB|cBAc B3||
^a|bf f2 bafg|ac c2 a3 ^a|bf f2 bafg|(3agf ec cBB^a|
bf f2 bafg|ac c2 a3 ^a|bgaf gefg|(3agf ec cBAc||


Tune 691	Setting 13749

